X:200
T: DER SOMMER KEHRET WIEDER
N: F0345
O: Europa, Mitteleuropa, Deutschland
R: Jugend - Lied, Geselligkeit, Scherz, Kanon
M: 2/4
L: 1/8
K: Bb
F | BdBd | B2B
B | cFFF | B2z
F | DB,DF | D2D
D | EEEE | D2z2 | z
fdz | zfdz | zfd

@@@ Tune index: 5631
